packages/kaspersky-hexa-ui-icons/src/iconsSVGs/48/Wait.svg

<svg width="48" height="48" viewBox="0 0 48 48" fill="none" xmlns="http://www.w3.org/2000/svg">
<path fill-rule="evenodd" clip-rule="evenodd" d="M23 29H25V30H23V29ZM23 28H25V27H23V28ZM23 32H25V31H23V32ZM27 23.47V24.53C27.001 24.8022 27.113 25.0622 27.31 25.25L34.24 31.92C35.9988 33.6218 36.9943 35.9627 37 38.41V42H38C39.6569 42 41 43.3431 41 45V48H7V45C7 43.3431 8.34315 42 10 42H11V38.41C11.0057 35.9627 12.0012 33.6218 13.76 31.92L20.69 25.25C20.887 25.0622 20.999 24.8022 21 24.53V23.47C20.999 23.1978 20.887 22.9378 20.69 22.75L13.76 16.08C12.0012 14.3782 11.0057 12.0373 11 9.59V6H10C8.34315 6 7 4.65685 7 3V0H41V3C41 4.65685 39.6569 6 38 6H37V9.59C36.9943 12.0373 35.9988 14.3782 34.24 16.08L27.31 22.75C27.113 22.9378 27.001 23.1978 27 23.47ZM38 4C38.5523 4 39 3.55228 39 3V2H9V3C9 3.55228 9.44772 4 10 4H38ZM10 44C9.44772 44 9 44.4477 9 45V46H39V45C39 44.4477 38.5523 44 38 44H10ZM32 40.54L24 35.2L16 40.54V42H32V40.54ZM25 24.54V23.47C25.0035 22.6526 25.3349 21.8708 25.92 21.3L32.85 14.64C34.2242 13.3195 35.0007 11.4958 35 9.59V6H13V9.59C12.9993 11.4958 13.7758 13.3195 15.15 14.64L22.08 21.3C22.6651 21.8708 22.9965 22.6526 23 23.47V24.53C22.9965 25.3474 22.6651 26.1292 22.08 26.7L15.15 33.36C13.7882 34.6684 13.0129 36.4715 13 38.36V42H14V39.46L24 32.8L34 39.46V42H35V38.41C34.9871 36.5215 34.2118 34.7184 32.85 33.41L25.92 26.7C25.3349 26.1292 25.0035 25.3474 25 24.53V24.54ZM32.91 12L24 20.91L15.09 12H32.91ZM24 18.09L28.09 14H19.91L24 18.09Z"  fill="currentColor"/>
</svg>

<svg xmlns="http://www.w3.org/2000/svg" width="48" height="48" fill="none" viewBox="0 0 48 48"><path fill="currentColor" fill-rule="evenodd" d="M23 29h2v1h-2zm0-1h2v-1h-2zm0 4h2v-1h-2zm4-8.53v1.06a1 1 0 0 0 .31.72l6.93 6.67A9.06 9.06 0 0 1 37 38.41V42h1c1.6569 0 3 1.3431 3 3v3H7v-3c0-1.6569 1.3431-3 3-3h1v-3.59a9.06 9.06 0 0 1 2.76-6.49l6.93-6.67a1 1 0 0 0 .31-.72v-1.06a1 1 0 0 0-.31-.72l-6.93-6.67A9.06 9.06 0 0 1 11 9.59V6h-1C8.3431 6 7 4.6569 7 3V0h34v3c0 1.6569-1.3431 3-3 3h-1v3.59a9.06 9.06 0 0 1-2.76 6.49l-6.93 6.67a1 1 0 0 0-.31.72M38 4c.5523 0 1-.4477 1-1V2H9v1c0 .5523.4477 1 1 1zM10 44c-.5523 0-1 .4477-1 1v1h30v-1c0-.5523-.4477-1-1-1zm22-3.46-8-5.34-8 5.34V42h16zm-7-16v-1.07a3.05 3.05 0 0 1 .92-2.17l6.93-6.66A7 7 0 0 0 35 9.59V6H13v3.59a7 7 0 0 0 2.15 5.05l6.93 6.66a3.05 3.05 0 0 1 .92 2.17v1.06a3.05 3.05 0 0 1-.92 2.17l-6.93 6.66a7 7 0 0 0-2.15 5V42h1v-2.54l10-6.66 10 6.66V42h1v-3.59a7 7 0 0 0-2.15-5l-6.93-6.71a3.05 3.05 0 0 1-.92-2.17zM32.91 12 24 20.91 15.09 12zM24 18.09 28.09 14h-8.18z" clip-rule="evenodd"/></svg>
